resources/svg/inbox-archive-fill.svg

<svg fill="currentColor" viewBox="0 0 24 24" xmlns="http://www.w3.org/2000/svg"><path d="M4 3H20L22 7V20C22 20.5523 21.5523 21 21 21H3C2.44772 21 2 20.5523 2 20V7.00353L4 3ZM13 14V10H11V14H8L12 18L16 14H13ZM19.7639 7L18.7639 5H5.23656L4.23744 7H19.7639Z"/></svg>

<svg xmlns="http://www.w3.org/2000/svg" viewBox="0 0 24 24" fill="currentColor">
    <g>
        <path fill="none" d="M0 0h24v24H0z"/>
        <path d="M4 3h16l2 4v13a1 1 0 0 1-1 1H3a1 1 0 0 1-1-1V7.004L4 3zm9 11v-4h-2v4H8l4 4 4-4h-3zm6.764-7l-1-2H5.237l-1 2h15.527z"/>
    </g>
</svg>
